!!!!SEGMENT: pl-wn--sd-xvi-o-261_anonim--kancjonal-zamoyskich-piesn-o-posiedzieniu-i-o-zniewoleniu-zalosnym-ziemie-wegierskiej-pan-bog-ktory-w-oce-mgnieniu.krn
!!!cenid: 15xx:818
!!!COM: Anonim
!!!COM-rismid: pe30004985
!!!CDT:
!!!CNT:
!!!GTL: Kancjonał Zamoyskich
!!!OTL: Pieśń o posiedzieniu i o zniewoleniu żałosnym Ziemie Węgierskiej/Pan Bóg który w oce mgnieniu
!!!PDT: 1558
!!!AGN:
!!!SMS-siglum: PL-Wn
!!!SMS-shelfmark: SD XVI.O.261
!!!SMS-shelfwork: G
!!!SMS-variant:
!!!SMS-altvar:
!!!NIFC-rismid:
!!!URL-scan: https://polona.pl/item/piesn-o-posiedzieniu-y-o-zniewoleniu-zalosnym-ziemie-wegierskiey-y-o-pogrozie-boskiey,MTE3MTI4OA/3/#info:metadata
!!!ONB-nifc: UWAGA: proszę zapisywać tylko teksty występujące bezpośrednio pod nutami
**kern	**text	**kern	**kern	**kern
*part4	*part4	*part3	*part2	*part1
*staff4	*staff4	*staff3	*staff2	*staff1
*Iempty	*	*Itenor	*Iempty	*Iempty
*I"BASS.	*	*I"TENOR	*I"ALT	*I"DISCANT.
*I'B.	*	*I'T.	*I'A.	*I'C.
*clefF4	*	*clefC4	*clefC3	*clefC1
*k[]	*	*k[]	*k[]	*k[]
*d:	*	*d:	*d:	*d:
*M2/1	*	*M2/1	*M2/1	*M2/1
=1	=1	=1	=1	=1
1A	Pan	1A	1A	1a
1F	Bog	1A	1c	1a
=2	=2	=2	=2	=2
0D	kto-	0A	0d	0f
=3	=3	=3	=3	=3
1E	-ry	1G	1c	1e
[1D	w o-	[1A	[1d	1f
=4	=4	=4	=4	=4
1D]	.	1A]	1d]	1g
1AA	-ce	1c	[1e	[1a
=5	=5	=5	=5	=5
0E	mg(nie-	0B	1e]	1a]
.	.	.	1e	1g
=6	=6	=6	=6	=6
0AA	-niu)	0A	0c	0a
=7	=7	=7	=7	=7
1AA	wład-	1A	1c	1e
1C	-n(ie)	1G	1c	1e
=8	=8	=8	=8	=8
0D	we	0F	0A	1f
!	!	!	!	!LO:SIC:v:t=custos e
.	.	.	.	1d
=9	=9	=9	=9	=9
!	!	!	!LO:SIC:v:t=custos d	!
1C	wſzyt-	1E	1c	1e
!LO:SIC:v:t=custos D	!	!	!	!
[1BB-X	-(kim)	[1D	[1d	[1f
=10	=10	=10	=10	=10
1BB-]	.	1D]	2d\]	2f/]
.	.	.	2c/	2e/
1D	ſtwo-	1F	1B	[1d
=11	=11	=11	=11	=11
0AA	-rze-	0E	1.A	1d]
.	.	.	.	1c
.	.	.	2G/	.
=12	=12	=12	=12	=12
0A	-niu/	0D	0F	0d
!!linebreak:original
=13	=13	=13	=13	=13
0D	prze-	0A	0d	0f
=14	=14	=14	=14	=14
0G	-kła-	0B	0d	0g
=15	=15	=15	=15	=15
1.F	-da	0c	1.f	1.a
2C/	.	.	2e\	2g/
=16	=16	=16	=16	=16
!	!	!LO:SIC:v:t=custos G	!	!
1D	nam	1A	1d	1f
1E	na-	1G	1c	1e
=17	=17	=17	=17	=17
!	!	!	!LO:SIC:v:t=custos e	!LO:SIC:v:t=custos a
1D	.	1A	1d	1f
1AA	-ſze	1c	[1e	[1a
=18	=18	=18	=18	=18
0E	złoſ-	0B	1e]	1a]
.	.	.	1e	1g
=19	=19	=19	=19	=19
0AA	-ci	0A	0c	0a
=20	=20	=20	=20	=20
!LO:SIC:v:t=custos C	!	!	!	!
1C	z ſwey	1.E	1c	1.g
2C/	wie-	.	1c	.
2D/	.	2F/	.	2f/
=21	=21	=21	=21	=21
1E	-li-	1G	1c	1e
2D/	-kiey	1A	2B/	1f
2F\	.	.	2c/	.
=22	=22	=22	=22	=22
1E	Boſ-	1B	1e	1g
1AA	-kiey	1c	1e	1a
=23	=23	=23	=23	=23
1E	mi-	1B	1e	1g
1F	.	1A	1d	[1a
=24	=24	=24	=24	=24
0E	-ło-	0B	0e	1a]
.	.	.	.	1g
=25	=25	=25	=25	=25
0AA	-ſci.	0A	0e	0a
==	==	==	==	==
*-	*-	*-	*-	*-
!!!system-decoration: [(s1,s2,s3,s4)]
!!!AIN: 3 empty 1 tenor
!!!ENC: Mateusz Solarz
!!!END: 2022-04-26
